X:165
T: Spazierende Schferin (2-67) S. 203
N: P0940
O: Lothringen
S: PINCK, Louis: Verklingende Weisen, Bd 2, Metz 1928]
R: ???, Beischlaf?]
M: 2/4
L: 1/16
K: Eb
B2 | B2B2B2B2 | B4B2
B2 | B2e2f2f2 | B6
B2 | B2B2B2d2 | e4d2
c2 | B2G2A2F2 | E8
G2BBE4 | F2AAD4 | E2G2G4
G2BBE4 | F2AAD2F2 | E4z2

